svg/Pictogram/pictograms-nps-misc-trucks.svg

<svg xmlns="http://www.w3.org/2000/svg" viewBox="0 0 256 256"><path d="m0 0c-.541 0-.981-.44-.981-.981v-7.522c0-.54.44-.979.981-.979h7.521c.541 0 .98.439.98.979v7.522c0 .541-.439.981-.98.981h-7.521" fill="#fff" transform="matrix(25.90307 0 0-25.90307 30.605 5.191)"/><path d="m0 0c.652 0 1.18.527 1.18 1.18v7.521c0 .653-.528 1.182-1.18 1.182h-7.521c-.653 0-1.182-.529-1.182-1.182v-7.521c0-.653.529-1.18 1.182-1.18h7.521" transform="matrix(25.90307 0 0-25.90307 225.43 256)"/><g fill="#fff"><path d="m0 0l-.078 1.16c-.014.168-.154.299-.326.299h-3.192c-.172 0-.312-.131-.328-.299l-.076-1.16h4m.672-1.189c0 .238-.192.431-.43.431-.238 0-.431-.193-.431-.431 0-.239.193-.43.431-.43.238 0 .43.191.43.43m-1.258-.647v1.088c0 .107-.088.195-.195.195h-2.446c-.105 0-.193-.088-.193-.195v-1.088h2.834zm-3.656.217c.236 0 .429.191.429.43 0 .238-.193.431-.429.431-.238 0-.432-.193-.432-.431 0-.239.194-.43.432-.43m3.838 3.383c.33 0 .601-.256.629-.58l.08-1.196.795-.48-.002-2.02h-.356l.002-.66c0-.285-.23-.514-.515-.514-.284 0-.514.229-.514.514v.66h-3.432l.002-.66c0-.285-.23-.514-.515-.514-.284 0-.514.229-.514.514v.66h-.354l-.002 2.02.795.48.08 1.196c.026.324.297.58.629.58h3.192z" transform="matrix(25.90307 0 0-25.90307 185.41 136.91)"/><path d="m0 0c.314 0 .568-.254.568-.566v-3.664l-.523.32-.068 1.07c-.047.461-.438.822-.911.822h-3.191c-.475 0-.863-.361-.91-.822l-.069-1.07-.525-.32.002 3.664c0 .312.254.566.566.566h5.061" transform="matrix(25.90307 0 0-25.90307 199.12 31.625)"/></g></svg>

<?xml version="1.0" encoding="UTF-8" standalone="no"?>
<!-- Created with Inkscape (http://www.inkscape.org/) -->
<svg
   xmlns:dc="http://purl.org/dc/elements/1.1/"
   xmlns:cc="http://creativecommons.org/ns#"
   xmlns:rdf="http://www.w3.org/1999/02/22-rdf-syntax-ns#"
   xmlns:svg="http://www.w3.org/2000/svg"
   xmlns="http://www.w3.org/2000/svg"
   xmlns:sodipodi="http://sodipodi.sourceforge.net/DTD/sodipodi-0.dtd"
   xmlns:inkscape="http://www.inkscape.org/namespaces/inkscape"
   width="256"
   height="256"
   id="svg5294"
   sodipodi:version="0.32"
   inkscape:version="0.46"
   version="1.0"
   sodipodi:docname="pictograms-nps-misc-trucks-2.svg"
   inkscape:output_extension="org.inkscape.output.svg.inkscape">
  <defs
     id="defs5296">
    <inkscape:perspective
       sodipodi:type="inkscape:persp3d"
       inkscape:vp_x="0 : 526.18109 : 1"
       inkscape:vp_y="0 : 1000 : 0"
       inkscape:vp_z="744.09448 : 526.18109 : 1"
       inkscape:persp3d-origin="372.04724 : 350.78739 : 1"
       id="perspective5302" />
  </defs>
  <sodipodi:namedview
     id="base"
     pagecolor="#ffffff"
     bordercolor="#666666"
     borderopacity="1.0"
     gridtolerance="10000"
     guidetolerance="10"
     objecttolerance="10"
     inkscape:pageopacity="0.0"
     inkscape:pageshadow="2"
     inkscape:zoom="0.98994949"
     inkscape:cx="112.80911"
     inkscape:cy="62.857143"
     inkscape:document-units="px"
     inkscape:current-layer="layer1"
     showgrid="false"
     inkscape:window-width="725"
     inkscape:window-height="674"
     inkscape:window-x="1"
     inkscape:window-y="309" />
  <metadata
     id="metadata5299">
    <rdf:RDF>
      <cc:Work
         rdf:about="">
        <dc:format>image/svg+xml</dc:format>
        <dc:type
           rdf:resource="http://purl.org/dc/dcmitype/StillImage" />
      </cc:Work>
    </rdf:RDF>
  </metadata>
  <g
     inkscape:label="Layer 1"
     inkscape:groupmode="layer"
     id="layer1">
    <g
       id="g5718"
       transform="matrix(25.903066,0,0,-25.903066,30.604514,5.1909744)">
      <path
         d="M 0,0 C -0.541,0 -0.981,-0.44 -0.981,-0.981 L -0.981,-8.503 C -0.981,-9.043 -0.541,-9.482 0,-9.482 L 7.521,-9.482 C 8.062,-9.482 8.501,-9.043 8.501,-8.503 L 8.501,-0.981 C 8.501,-0.44 8.062,0 7.521,0 L 0,0 z"
         style="fill:#ffffff;fill-opacity:1;fill-rule:nonzero;stroke:none"
         id="path5720" />
    </g>
    <g
       id="g5722"
       transform="matrix(25.903066,0,0,-25.903066,225.43438,256)">
      <path
         d="M 0,0 C 0.652,0 1.18,0.527 1.18,1.18 L 1.18,8.701 C 1.18,9.354 0.652,9.883 0,9.883 L -7.521,9.883 C -8.174,9.883 -8.703,9.354 -8.703,8.701 L -8.703,1.18 C -8.703,0.527 -8.174,0 -7.521,0 L 0,0 z"
         style="fill:#000000;fill-opacity:1;fill-rule:nonzero;stroke:none"
         id="path5724" />
    </g>
    <g
       id="g5726"
       transform="matrix(25.903066,0,0,-25.903066,185.41421,136.90848)">
      <path
         d="M 0,0 L -0.078,1.16 C -0.092,1.328 -0.232,1.459 -0.404,1.459 L -3.596,1.459 C -3.768,1.459 -3.908,1.328 -3.924,1.16 L -4,0 L 0,0 z M 0.672,-1.189 C 0.672,-0.951 0.48,-0.758 0.242,-0.758 C 0.004,-0.758 -0.189,-0.951 -0.189,-1.189 C -0.189,-1.428 0.004,-1.619 0.242,-1.619 C 0.48,-1.619 0.672,-1.428 0.672,-1.189 M -0.586,-1.836 L -0.586,-0.748 C -0.586,-0.641 -0.674,-0.553 -0.781,-0.553 L -3.227,-0.553 C -3.332,-0.553 -3.42,-0.641 -3.42,-0.748 L -3.42,-1.836 L -0.586,-1.836 z M -4.242,-1.619 C -4.006,-1.619 -3.813,-1.428 -3.813,-1.189 C -3.813,-0.951 -4.006,-0.758 -4.242,-0.758 C -4.48,-0.758 -4.674,-0.951 -4.674,-1.189 C -4.674,-1.428 -4.48,-1.619 -4.242,-1.619 M -0.404,1.764 C -0.074,1.764 0.197,1.508 0.225,1.184 L 0.305,-0.012 L 1.1,-0.492 L 1.098,-2.512 L 0.742,-2.512 L 0.744,-3.172 C 0.744,-3.457 0.514,-3.686 0.229,-3.686 C -0.055,-3.686 -0.285,-3.457 -0.285,-3.172 L -0.285,-2.512 L -3.717,-2.512 L -3.715,-3.172 C -3.715,-3.457 -3.945,-3.686 -4.23,-3.686 C -4.514,-3.686 -4.744,-3.457 -4.744,-3.172 L -4.744,-2.512 L -5.098,-2.512 L -5.1,-0.492 L -4.305,-0.012 L -4.225,1.184 C -4.199,1.508 -3.928,1.764 -3.596,1.764 L -0.404,1.764 z"
         style="fill:#ffffff;fill-opacity:1;fill-rule:nonzero;stroke:none"
         id="path5728" />
    </g>
    <g
       id="g5730"
       transform="matrix(25.903066,0,0,-25.903066,199.12462,31.62495)">
      <path
         d="M 0,0 C 0.314,0 0.568,-0.254 0.568,-0.566 L 0.568,-4.23 L 0.045,-3.91 L -0.023,-2.84 C -0.07,-2.379 -0.461,-2.018 -0.934,-2.018 L -4.125,-2.018 C -4.6,-2.018 -4.988,-2.379 -5.035,-2.84 L -5.104,-3.91 L -5.629,-4.23 L -5.627,-0.566 C -5.627,-0.254 -5.373,0 -5.061,0 L 0,0 z"
         style="fill:#ffffff;fill-opacity:1;fill-rule:nonzero;stroke:none"
         id="path5732" />
    </g>
  </g>
</svg>
